images/xcad.svg

<svg height="250" viewBox="0 0 250 250" width="250" xmlns="http://www.w3.org/2000/svg" xmlns:xlink="http://www.w3.org/1999/xlink"><linearGradient id="a" gradientUnits="userSpaceOnUse" x1="125.9422322976" x2="125.9422322976" y1="187.08502052236" y2="33.53544712728"><stop offset=".0155" stop-color="#fd6422"/><stop offset=".2601" stop-color="#fc194a"/><stop offset=".6054" stop-color="#fc125f"/><stop offset="1" stop-color="#9b2aa6"/></linearGradient><path d="m102.101562 105.050781-34.128906-71.503906h49.402344l17.382812 41.882813h.433594l31.789063-41.882813h50.90625l-61.234375 74.511719 36.300781 79.019531h-51.109375l-18.683594-48.101563h-.4375l-36.296875 48.101563h-52.410156zm0 0" fill="url(#a)"/></svg>

<svg xmlns="http://www.w3.org/2000/svg" xmlns:xlink="http://www.w3.org/1999/xlink" width="250px" height="250px" viewBox="0 0 250 250" version="1.1">
<defs>
<linearGradient id="linear0" gradientUnits="userSpaceOnUse" x1="22.6696" y1="33.675301" x2="22.6696" y2="6.03638" gradientTransform="matrix(5.555556,0,0,5.555556,0,0)">
<stop offset="0.0155" style="stop-color:rgb(99.215686%,39.215687%,13.333334%);stop-opacity:1;"/>
<stop offset="0.2601" style="stop-color:rgb(98.823529%,9.803922%,29.019609%);stop-opacity:1;"/>
<stop offset="0.6054" style="stop-color:rgb(98.823529%,7.058824%,37.254903%);stop-opacity:1;"/>
<stop offset="1" style="stop-color:rgb(60.784316%,16.470589%,65.098041%);stop-opacity:1;"/>
</linearGradient>
</defs>
<g id="surface1">
<path style=" stroke:none;fill-rule:nonzero;fill:url(#linear0);" d="M 102.101562 105.050781 L 67.972656 33.546875 L 117.375 33.546875 L 134.757812 75.429688 L 135.191406 75.429688 L 166.980469 33.546875 L 217.886719 33.546875 L 156.652344 108.058594 L 192.953125 187.078125 L 141.84375 187.078125 L 123.160156 138.976562 L 122.722656 138.976562 L 86.425781 187.078125 L 34.015625 187.078125 Z M 102.101562 105.050781 "/>
</g>
</svg>
